!!!OTL: "Bauern - Elend" ISCH DAS NIT ES ELENGS LEBEN
!!!ARE: Europa, Mitteleuropa, Schweiz
!!!SCT: Z1302
!!!YEM: Copyright 1995, estate of Helmut Schaffrath.
**kern
*ICvox
*Ivox
*M4/4
*k[f#]
*G:
{4.g
8a
4b
8cc
8b
=1
4a
8b
8a
4g
4d}
=2
{4.b
8cc
4dd
8ee
8dd
=3
4cc
8a
8cc
4b
4r}
=4
{4.g
8a
4b
8cc
8b
=5
4a
8b
8a
4g
4d}
=6
{4.b
8cc
4dd
8ee
8dd
=7
4cc
8dd
8cc
4b
4r}
=8
{4dd
8ee
8dd
4ee
4dd
=9
4dd
8ee
8dd
4ee
4dd}
=10
{4dd
8ee
8dd
4ee
4dd
=11
4dd
8ee
8dd
4ee
4dd}
=12
{4.dd
8cc
4b
4g
=13
4.a
8b
4g
4r}
==
!!!AGN: Handwerker -, Bauern - Lied
!!!ONB: ESAC (Essen Associative Code) Database: ZUCCAL
!!!AMT: simple quadruple
!!!AIN: vox
!!!EED: Helmut Schaffrath
!!!EEV: 1.0
*-
